icon/pk/bookshelf.svg

<svg width="48" height="48" fill="none" xmlns="http://www.w3.org/2000/svg"><path d="M5 6h34s4 2 4 7-4 7-4 7H5s4-2 4-7-4-7-4-7ZM43 28H9s-4 2-4 7 4 7 4 7h34s-4-2-4-7 4-7 4-7Z" fill="#2F88FF" stroke="#000" stroke-width="4" stroke-linecap="round" stroke-linejoin="round"/></svg>

<svg viewBox="0 0 48 48" fill="none" xmlns="http://www.w3.org/2000/svg" height="1em" width="1em">
  <path d="M5 6H39C39 6 43 8 43 13C43 18 39 20 39 20H5C5 20 9 18 9 13C9 8 5 6 5 6Z" fill="#2F88FF" stroke="black" stroke-width="4" stroke-linecap="round" stroke-linejoin="round"/>
  <path d="M43 28H9C9 28 5 30 5 35C5 40 9 42 9 42H43C43 42 39 40 39 35C39 30 43 28 43 28Z" fill="#2F88FF" stroke="black" stroke-width="4" stroke-linecap="round" stroke-linejoin="round"/>
</svg>
